X: 979
T: Toss The Feathers
B: jims roots
M:4/4
L:1/8
R: reel
Q: 1/4=100
K:Edor
V:1 
%Z: Bryce
%S: <a href="http://thesession.org/tunes/113#setting21754" rel="nofollow">http://thesession.org/tunes/113#setting21754</a>
|:"Em"EBB2 dBB2|"Em"EBBA "D"FDFA|"Em"BE E2 BABd|[1"C"egfe "D"dBAF:|
[2"C"egfe "D"dBAe||"Em"Beed e2 de|"D"fede "Bm"fe e2|"Em"febe febe|
"D"fede "Bm"feed|"Em"Beed e2 de|"D"fede fa a2|"G"b2bf "D"a2af|
"C"egfe "Bm"dBAF|]
% abcbook-tune_id 6298c2976c292a3cf517eb87


% abcbook-boost 0
% abcbook-tablature 
% abcbook-transpose 
% abcbook-lastupdated 1654178456241
% abcbook-soundfonts 
% abcbook-repeats 1


